X: 33813
T: Reading The Will
R: jig
M: 6/8
K: Gmajor
|:c|B2G GBd|gfg g2c|B2G GFG|ABc =fcA|
BAB GBd|gfg dge|=fed cAd|GAG G2:|
|:B|dBd g2a|bag fdc|dgg =fdc|A2G ABc|
dBd g2a|bag faf|gfd cAd|GAG G2:|

